X:161
U: ~ = !turn!
%%topmargin 3cm
T:Paddy's Trip to Scotland
B:Traditional Irish Fiddle Tunes. Randy Miller and Jack Perron.
Z:Transcribed by Ralph Palmer
R:Reel
M:C|
L:1/8
K:G
{/F}G2 dG BdGB | dGcd ecAD | {/F}G2 dc Bcde | dBcA BGGD |
{/F}G2 dG BdGB | dGcg edAD | {/F}G2 dc Bcde | dBcA BGBd ::
egfg egfe | dafd Adfd | egfg efga | bagf gfe^d |
egfg ebge | dafd FdAF | G2 dc Bcde | dBeA BG G2 :|]
